komnata/build/images/icons/insta.svg

<svg width="22" height="22" viewBox="0 0 22 22" fill="none" xmlns="http://www.w3.org/2000/svg">
<g clip-path="url(#clip0_702_4134)">
<path d="M11 0C17.05 0 22 4.95 22 11C22 17.05 17.05 22 11 22C4.95 22 0 17.05 0 11C0 4.95 4.95 0 11 0Z" fill="url(#paint0_linear_702_4134)"/>
<path d="M14.2313 4.125H7.7C5.70625 4.125 4.125 5.775 4.125 7.8375V14.1625C4.125 16.1562 5.70625 17.8062 7.76875 17.875H14.3C16.2937 17.875 17.9438 16.225 17.9438 14.1625V7.8375C17.875 5.775 16.2938 4.125 14.2313 4.125ZM16.6375 14.0938C16.6375 15.4688 15.5375 16.6375 14.0938 16.6375H7.8375C6.4625 16.6375 5.29375 15.4688 5.3625 14.0938V7.90625C5.3625 6.53125 6.4625 5.3625 7.8375 5.3625H14.0938C15.4688 5.3625 16.6375 6.53125 16.6375 7.90625V14.0938Z" fill="white"/>
<path d="M11 7.49386C9.07501 7.42511 7.42501 9.00636 7.42501 10.9314C7.35626 12.8564 8.93751 14.5064 10.8625 14.5064C12.7875 14.5064 14.4375 12.9939 14.4375 11.0689V11.0001C14.5063 9.07511 12.925 7.49386 11 7.49386ZM11 13.2689C9.76251 13.2689 8.73126 12.3064 8.66251 11.0689C8.66251 9.83136 9.62501 8.80011 10.8625 8.73136C12.1 8.66261 13.1313 9.69386 13.2 10.9314V11.0001C13.2688 12.2376 12.2375 13.2689 11 13.2689Z" fill="white"/>
<path d="M14.6438 6.4624C15.0563 6.4624 15.4 6.80615 15.4 7.2874C15.4 7.76865 15.0563 8.1124 14.6438 8.1124C14.2313 8.1124 13.8875 7.76865 13.8875 7.2874C13.8875 6.80615 14.2313 6.4624 14.6438 6.4624Z" fill="white"/>
</g>
<defs>
<linearGradient id="paint0_linear_702_4134" x1="5.49813" y1="20.5285" x2="16.5" y2="1.47276" gradientUnits="userSpaceOnUse">
<stop stop-color="#FEC053"/>
<stop offset="0.327" stop-color="#F2203E"/>
<stop offset="0.648" stop-color="#B729A8"/>
<stop offset="1" stop-color="#5342D6"/>
</linearGradient>
<clipPath id="clip0_702_4134">
<rect width="22" height="22" fill="white"/>
</clipPath>
</defs>
</svg>

<svg width="22" height="22" fill="none" xmlns="http://www.w3.org/2000/svg"><g clip-path="url(#a)"><path d="M11 0c6.05 0 11 4.95 11 11s-4.95 11-11 11S0 17.05 0 11 4.95 0 11 0Z" fill="url(#b)"/><path d="M14.231 4.125H7.7c-1.994 0-3.575 1.65-3.575 3.713v6.324c0 1.994 1.581 3.644 3.644 3.713H14.3c1.994 0 3.644-1.65 3.644-3.713V7.837c-.069-2.062-1.65-3.712-3.713-3.712Zm2.406 9.969c0 1.375-1.1 2.543-2.543 2.543H7.838c-1.375 0-2.544-1.168-2.476-2.543V7.906c0-1.375 1.1-2.543 2.476-2.543h6.256c1.375 0 2.543 1.168 2.543 2.543v6.188Z" fill="#fff"/><path d="M11 7.494c-1.925-.069-3.575 1.512-3.575 3.437-.069 1.925 1.513 3.575 3.438 3.575 1.925 0 3.575-1.512 3.575-3.437V11c.068-1.925-1.513-3.506-3.438-3.506Zm0 5.775a2.337 2.337 0 0 1-2.337-2.2c0-1.238.962-2.269 2.2-2.338 1.237-.068 2.268.963 2.337 2.2v.07c.069 1.237-.962 2.268-2.2 2.268Zm3.644-6.807c.412 0 .756.344.756.825 0 .482-.344.825-.756.825-.413 0-.757-.343-.757-.825 0-.48.344-.825.757-.825Z" fill="#fff"/></g><defs><linearGradient id="b" x1="5.498" y1="20.529" x2="16.5" y2="1.473" gradientUnits="userSpaceOnUse"><stop stop-color="#FEC053"/><stop offset=".327" stop-color="#F2203E"/><stop offset=".648" stop-color="#B729A8"/><stop offset="1" stop-color="#5342D6"/></linearGradient><clipPath id="a"><path fill="#fff" d="M0 0h22v22H0z"/></clipPath></defs></svg>
